X:149 
T:Miss McDonald (reel) 
B:CRE3.134 (InÃÂÃÂÃÂÃÂ­on Mhic Dhonaill)
F:file ID: cre.3/149miss_mcd
R:reel
M:C
L:1/8
Q:180
K:G
GBdg edcB|Aaag aBBA|GBdg egdB|cedc BdAF|
GBdg edcB|Aaag aBBA|GBdg egdg|egdc BGG2||
g2dg bgag|edga bgaf|g2dg bgag|egag bg g/f/g|
g2dg bgag|edga bgaf|gbag fagf|e/f/g fa gedB||

%%%

